X:46
T:Duncan Davidson
S:Petrie's Second Collection of Strathspey Reels and Country Dances &c.
Z:Steve Wyrick , 6/11/04
N:Petrie's Second Collection, page 16
% Gore's Index gives earliest publication as Alexander MacGlashan's 
% "A Coll. Of Str. R. ..." 1778
L:1/8
M:C
R:Strathspey
K:D
D>FA>B A<FA>B|D2 d>B A<FE>F|D>FA>B A<FA>f|e>de<f d<d d2:|
f>ed>f g>fe>d|c<Ae<A f<Ae<A|f>ed<f g>fe>d|c>de>f dg |
f>ed<f g>fe>d|c<Ae<A f<Ae<A|f<dg<e a<fb<g|f<de<f d<d d2|]
